!!!Rep U0527
!!!Isim(Name): Bir Güzel Ki On Yaşına Girince
!!!Yore(Region): Diyarbakır
!!!Makam: Hüseyni
!!!Arizalar(Accidentals): b-2
!!!Usul: 2/4
**kern	**Dcent
*staff1	*.
*clefG2	*.
*k[b-]	*.
*M2/4	*.
8a	0
16dd	0
16b-	50
8cc	0
16dd	0
16b-	50
=1	=1
8cc	0
16dd	0
16b-	50
8cc	0
16dd	0
16b-	50
=2	=2
8.a	0
16a	0
16a	0
16a	0
8a	0
=3:!:	=3:!:
!!linebreak:default
16r	.
8ee	0
16dd	0
16dd	0
16dd	0
16dd	0
16b-	50
=4	=4
16r	0
8dd	0
16cc	0
16cc	0
16b-	50
16b-	50
16a	0
=5	=5
16r	0
8cc	0
16b-	50
16b-	50
16a	0
8dd	0
=6	=6
!!linebreak:default
8.a	0
16a	0
16a	0
16a	0
8a	0
=7:!	=7:!
16ee	0
16dd	0
16ee	0
16dd	0
16ee	0
16ee	0
8ee;	0
=8	=8
16a	0
16bb-	50
12cc	0
12bb-	50
12aa	0
8cc;	0
=	=
*-	*-
!! Uzun Hava Humdrum Bilgi Bankasi (Uzun Hava Humdrum Database)
!! 
!! Sertan Senturk, Parag Chordia & Erdal Tugcular
!! Georgia Tech Center for Music Technology, 2011
